X:143
T:Waltzes simple chords 20
M:3/4
L:1/8
K:Edor
E2 [E2A,2C2E2] c2 | A2 [B2E,2^G,2B,2D2] F2 | E2 [E2A,2C2E2] c2 | A2 [B2E,2^G,2B,2D2] F2 | E2 [E2A,2C2E2] A2 |
c2 [e2F,2A,2C2] d3 |c [B2D,2F,2A,2] c2 | A2 [B4E,4^G,4B,4D4] | E2 [E2A,2C2E2] c2 |
A2 [B2E,2^G,2B,2D2] F2 | E2 [E2A,2C2E2] c2 | A2 [B2E,2^G,2B,2D2] F2 | E2 [E2A,2C2E2] A2 |
c2 [e2F,2A,2C2] d3 |c [B2D,2F,2A,2] c2 | A2 [e4E,4^G,4B,4D4] | ee [e2C,2E,2G,2_B,2] f2 |
g2 [a4F,4A,4C4] | fe [d2G,2B,2D2F2] e2 | f2 [g4C,4E,4G,4] | cc [d2_B,2D2F2] c2 |
d2 [eA,CE]c A2 | AA [c2F,2A,2C2] B2 | A2 [e4E,4^G,4B,4D4] | ee [e2C,2E,2G,2_B,2] f2 |
g2 [aF,A,C]f d2 | dd [d2G,2B,2D2F2] e2 | f2 [gC,E,G,]e c2 | cc [d2_B,2D2F2] c2 |
d2 [eA,CE]c A2 | EE [EE,^G,B,D]c A2 | ^G2 [A4A,4C4E4] | E2 [E2A,2C2E2] c2 |
A2 [B2E,2^G,2B,2D2] F2 | E2 [E2A,2C2E2] c2 | A2 [B2E,2^G,2B,2D2] F2 | E2 [E2A,2C2E2] A2 |
c2 [e2F,2A,2C2] d3 |c [B2D,2F,2A,2] c2 | A2 [B4E,4^G,4B,4D4] | E2 [E2A,2C2E2] c2 |
A2 [B2E,2^G,2B,2D2] F2 | E2 [E2A,2C2E2] c2 | A2 [B2E,2^G,2B,2D2] F2 | E2 [E2A,2C2E2] A2 |
c2 [e2F,2A,2C2] d3 |c [B2D,2F,2A,2] c2 | A2 [e4E,4^G,4B,4D4] | ee [e2C,2E,2G,2_B,2] f2 |
g2 [a4F,4A,4C4] | fe [d2G,2B,2D2F2] e2 | f2 [g4C,4E,4G,4] | cc [d2_B,2D2F2] c2 |
d2 [eA,CE]c A2 | AA [c2F,2A,2C2] B2 | A2 [e4E,4^G,4B,4D4] | ee [e2C,2E,2G,2_B,2] f2 |
g2 [aF,A,C]f d2 | dd [d2G,2B,2D2F2] e2 | f2 [gC,E,G,]e c2 | cc [d2_B,2D2F2] c2 |
d2 [eA,CE]c A2 | EE [EE,^G,B,D]c A2 | ^G2 [A4A,4C4E4] |


